X: 14969
T: Gemima
R: reel
M: 4/4
K: Amajor
ceae fecf|ecBA BAFA|E3F ABce|fcec B2AB|
ceae fecf|ecBA BAFA|E3F ABce|fcec A2AB:|
|:cEEA zD FD|EFAB cdcB|cEEA zD FD|EFAB A2AB|
cEEA zD FD|EFAB cdcB|cdec defd|efge afed:|

